X:1
T: The Bunch of Roses
C:
R:Jig
Q:180
K:Gm
M:6/8
L:1/16
dc|B4B2 B2c2d2|c4A2 A2B2c2|B4G2 G2A2B2|A2F2D2 D2G2A2|B4B2 B2c2d2|c4A2 A2B2c2|B2A2G2 A2G2^F2|G6 G4dc|
B4B2 B2c2d2|c4A2 A2B2c2|B4G2 G2A2B2|A2F2D2 D2G2A2|B4B2 B2c2d2|c4A2 A2B2c2|B2A2G2 A2G2^F2|G6 G4d=e|
f4d2 d2=e2^f2|g4d2 d2c2A2|G4f2 f4g2|a2f2d2 d4=e2|f2g2a2 g2f2=e2|f2=e2d2 c2B2A2|G2A2B2 A2G2^F2|G6 G4d=e|
f4d2 d2=e2^f2|g4d2 d2c2A2|G4f2 f4g2|a2f2d2 d4=e2|f2g2a2 g2f2=e2|f2=e2d2 c2B2A2|G2A2B2 A2G2^F2|G6 G4||
